projects/flag-game/flags/Palestine.svg

<svg viewBox="0 0 128 64" xmlns="http://www.w3.org/2000/svg"><g fill-rule="evenodd"><path d="m0 0h128v21.332031h-128zm0 0"/><path d="m0 21.332031h128v21.335938h-128zm0 0" fill="#fff"/><path d="m0 42.667969h128v21.332031h-128zm0 0" fill="#007a3d"/><path d="m0 0 42.667969 32-42.667969 32zm0 0" fill="#ce1126"/></g></svg>

<?xml version="1.0" encoding="UTF-8"?>
<svg xmlns="http://www.w3.org/2000/svg" xmlns:xlink="http://www.w3.org/1999/xlink" viewBox="0 0 128 64" version="1.1">
<g id="surface412">
<path style=" stroke:none;fill-rule:evenodd;fill:rgb(0%,0%,0%);fill-opacity:1;" d="M 0 0 L 128 0 L 128 21.332031 L 0 21.332031 Z M 0 0 "/>
<path style=" stroke:none;fill-rule:evenodd;fill:rgb(99.998474%,99.998474%,99.998474%);fill-opacity:1;" d="M 0 21.332031 L 128 21.332031 L 128 42.667969 L 0 42.667969 Z M 0 21.332031 "/>
<path style=" stroke:none;fill-rule:evenodd;fill:rgb(0%,47.842407%,23.921204%);fill-opacity:1;" d="M 0 42.667969 L 128 42.667969 L 128 64 L 0 64 Z M 0 42.667969 "/>
<path style=" stroke:none;fill-rule:evenodd;fill:rgb(80.783081%,6.666565%,14.901733%);fill-opacity:1;" d="M 0 0 L 42.667969 32 L 0 64 Z M 0 0 "/>
</g>
</svg>
